images/decoration-1.svg

<svg xmlns="http://www.w3.org/2000/svg" xmlns:xlink="http://www.w3.org/1999/xlink" width="159px" height="74px" viewBox="0 0 159 74" fill="#111111" aria-hidden="true">
    <path fill-rule="evenodd" d="M147.377,42.916 C144.104,42.916 141.207,44.523 139.380,46.999 L139.358,46.999 C137.209,51.160 132.944,53.999 128.028,53.999 C123.112,53.999 118.848,51.160 116.699,46.999 L116.716,46.999 C114.878,44.523 111.965,42.916 108.674,42.916 C105.384,42.916 102.471,44.523 100.633,46.999 L100.610,46.999 C98.449,51.160 94.161,53.999 89.218,53.999 C84.275,53.999 79.988,51.160 77.827,46.999 L77.822,46.999 C75.995,44.523 73.097,42.916 69.825,42.916 C66.552,42.916 63.655,44.523 61.828,46.999 L61.806,46.999 C59.656,51.160 55.392,53.999 50.476,53.999 C45.560,53.999 41.296,51.160 39.147,46.999 L39.163,46.999 C37.326,44.523 34.413,42.916 31.122,42.916 C27.832,42.916 24.919,44.523 23.081,46.999 L23.058,46.999 C20.897,51.160 16.609,53.999 11.666,53.999 C6.723,53.999 2.436,51.160 0.275,46.999 L3.663,46.999 C5.492,49.474 8.391,51.082 11.666,51.082 C14.942,51.082 17.841,49.474 19.670,46.999 L19.677,46.999 C21.848,42.837 26.156,39.999 31.122,39.999 C36.089,39.999 40.396,42.837 42.567,46.999 L42.517,46.999 C44.335,49.474 47.219,51.082 50.476,51.082 C53.734,51.082 56.617,49.474 58.436,46.999 L58.442,46.999 C60.601,42.837 64.885,39.999 69.825,39.999 C74.764,39.999 79.048,42.837 81.207,46.999 L81.215,46.999 C83.044,49.474 85.943,51.082 89.218,51.082 C92.494,51.082 95.393,49.474 97.222,46.999 L97.229,46.999 C99.400,42.837 103.708,39.999 108.674,39.999 C113.641,39.999 117.949,42.837 120.120,46.999 L120.069,46.999 C121.887,49.474 124.771,51.082 128.028,51.082 C131.286,51.082 134.169,49.474 135.988,46.999 L135.994,46.999 C138.153,42.837 142.438,39.999 147.377,39.999 C152.316,39.999 156.600,42.837 158.759,46.999 L155.374,46.999 C153.547,44.523 150.650,42.916 147.377,42.916 ZM147.377,22.916 C144.104,22.916 141.207,24.523 139.380,26.998 L139.358,26.998 C137.209,31.160 132.944,33.999 128.028,33.999 C123.112,33.999 118.848,31.160 116.699,26.998 L116.716,26.998 C114.878,24.523 111.965,22.916 108.674,22.916 C105.384,22.916 102.471,24.523 100.633,26.998 L100.610,26.998 C98.449,31.160 94.161,33.999 89.218,33.999 C84.275,33.999 79.988,31.160 77.827,26.998 L77.822,26.998 C75.995,24.523 73.097,22.916 69.825,22.916 C66.552,22.916 63.655,24.523 61.828,26.998 L61.806,26.998 C59.656,31.160 55.392,33.999 50.476,33.999 C45.560,33.999 41.296,31.160 39.147,26.998 L39.163,26.998 C37.326,24.523 34.413,22.916 31.122,22.916 C27.832,22.916 24.919,24.523 23.081,26.998 L23.058,26.998 C20.897,31.160 16.609,33.999 11.666,33.999 C6.723,33.999 2.436,31.160 0.275,26.998 L3.663,26.998 C5.492,29.474 8.391,31.082 11.666,31.082 C14.942,31.082 17.841,29.474 19.670,26.998 L19.677,26.998 C21.848,22.837 26.156,19.999 31.122,19.999 C36.089,19.999 40.396,22.837 42.567,26.998 L42.517,26.998 C44.335,29.474 47.219,31.082 50.476,31.082 C53.734,31.082 56.617,29.474 58.436,26.998 L58.442,26.998 C60.601,22.837 64.885,19.999 69.825,19.999 C74.764,19.999 79.048,22.837 81.207,26.998 L81.215,26.998 C83.044,29.474 85.943,31.082 89.218,31.082 C92.494,31.082 95.393,29.474 97.222,26.998 L97.229,26.998 C99.400,22.837 103.708,19.999 108.674,19.999 C113.641,19.999 117.949,22.837 120.120,26.998 L120.069,26.998 C121.887,29.474 124.771,31.082 128.028,31.082 C131.286,31.082 134.169,29.474 135.988,26.998 L135.994,26.998 C138.153,22.837 142.438,19.999 147.377,19.999 C152.316,19.999 156.600,22.837 158.759,26.998 L155.374,26.998 C153.547,24.523 150.650,22.916 147.377,22.916 ZM147.377,2.916 C144.104,2.916 141.207,4.524 139.380,6.999 L139.358,6.999 C137.209,11.160 132.944,13.999 128.028,13.999 C123.112,13.999 118.848,11.160 116.699,6.999 L116.716,6.999 C114.878,4.524 111.965,2.916 108.674,2.916 C105.384,2.916 102.471,4.524 100.633,6.999 L100.610,6.999 C98.449,11.160 94.161,13.999 89.218,13.999 C84.275,13.999 79.988,11.160 77.827,6.999 L77.822,6.999 C75.995,4.524 73.097,2.916 69.825,2.916 C66.552,2.916 63.655,4.524 61.828,6.999 L61.806,6.999 C59.656,11.160 55.392,13.999 50.476,13.999 C45.560,13.999 41.296,11.160 39.147,6.999 L39.163,6.999 C37.326,4.524 34.413,2.916 31.122,2.916 C27.832,2.916 24.919,4.524 23.081,6.999 L23.058,6.999 C20.897,11.160 16.609,13.999 11.666,13.999 C6.723,13.999 2.436,11.160 0.275,6.999 L3.663,6.999 C5.492,9.475 8.391,11.082 11.666,11.082 C14.942,11.082 17.841,9.475 19.670,6.999 L19.677,6.999 C21.848,2.837 26.156,-0.001 31.122,-0.001 C36.089,-0.001 40.396,2.837 42.567,6.999 L42.517,6.999 C44.335,9.475 47.219,11.082 50.476,11.082 C53.734,11.082 56.617,9.475 58.436,6.999 L58.442,6.999 C60.601,2.837 64.885,-0.001 69.825,-0.001 C74.764,-0.001 79.048,2.837 81.207,6.999 L81.215,6.999 C83.044,9.475 85.943,11.082 89.218,11.082 C92.494,11.082 95.393,9.475 97.222,6.999 L97.229,6.999 C99.400,2.837 103.708,-0.001 108.674,-0.001 C113.641,-0.001 117.949,2.837 120.120,6.999 L120.069,6.999 C121.887,9.475 124.771,11.082 128.028,11.082 C131.286,11.082 134.169,9.475 135.988,6.999 L135.994,6.999 C138.153,2.837 142.438,-0.001 147.377,-0.001 C152.316,-0.001 156.600,2.837 158.759,6.999 L155.374,6.999 C153.547,4.524 150.650,2.916 147.377,2.916 ZM11.666,71.082 C14.942,71.082 17.841,69.475 19.670,66.999 L19.677,66.999 C21.848,62.837 26.156,59.999 31.122,59.999 C36.089,59.999 40.396,62.837 42.567,66.999 L42.517,66.999 C44.335,69.475 47.219,71.082 50.476,71.082 C53.734,71.082 56.617,69.475 58.436,66.999 L58.442,66.999 C60.601,62.837 64.885,59.999 69.825,59.999 C74.764,59.999 79.048,62.837 81.207,66.999 L81.215,66.999 C83.044,69.475 85.943,71.082 89.218,71.082 C92.494,71.082 95.393,69.475 97.222,66.999 L97.229,66.999 C99.400,62.837 103.708,59.999 108.674,59.999 C113.641,59.999 117.949,62.837 120.120,66.999 L120.069,66.999 C121.887,69.475 124.771,71.082 128.028,71.082 C131.286,71.082 134.169,69.475 135.988,66.999 L135.994,66.999 C138.153,62.837 142.438,59.999 147.377,59.999 C152.316,59.999 156.600,62.837 158.759,66.999 L155.374,66.999 C153.547,64.524 150.650,62.916 147.377,62.916 C144.104,62.916 141.207,64.524 139.380,66.999 L139.358,66.999 C137.209,71.160 132.944,73.999 128.028,73.999 C123.112,73.999 118.848,71.160 116.699,66.999 L116.716,66.999 C114.878,64.524 111.965,62.916 108.674,62.916 C105.384,62.916 102.471,64.524 100.633,66.999 L100.610,66.999 C98.449,71.160 94.161,73.999 89.218,73.999 C84.275,73.999 79.988,71.160 77.827,66.999 L77.822,66.999 C75.995,64.524 73.097,62.916 69.825,62.916 C66.552,62.916 63.655,64.524 61.828,66.999 L61.806,66.999 C59.656,71.160 55.392,73.999 50.476,73.999 C45.560,73.999 41.296,71.160 39.147,66.999 L39.163,66.999 C37.326,64.524 34.413,62.916 31.122,62.916 C27.832,62.916 24.919,64.524 23.081,66.999 L23.058,66.999 C20.897,71.160 16.609,73.999 11.666,73.999 C6.723,73.999 2.436,71.160 0.275,66.999 L3.663,66.999 C5.492,69.475 8.391,71.082 11.666,71.082 Z"/>
</svg>

<!-- waves.svg -->
<svg xmlns="http://www.w3.org/2000/svg" viewBox="0 0 159 74" width="159" height="74" aria-hidden="true" focusable="false">
  <path fill="#004aad" fill-rule="evenodd" d="M147.38,42.92c-3.27,0-6.17,1.61-8,4.08h-.02c-2.15,4.16-6.41,7-11.33,7s-9.18-2.84-11.33-7h.02c-1.84-2.48-4.75-4.08-8.04-4.08s-6.2,1.61-8.04,4.08h-.02c-2.16,4.16-6.45,7-11.39,7s-9.23-2.84-11.39-7h0c-1.83-2.48-4.72-4.08-8-4.08s-6.17,1.61-8,4.08h-.02c-2.15,4.16-6.41,7-11.33,7s-9.18-2.84-11.33-7h.02c-1.84-2.48-4.75-4.08-8.04-4.08s-6.2,1.61-8.04,4.08h-.02c-2.16,4.16-6.45,7-11.39,7s-9.23-2.84-11.39-7h3.39c1.83,2.47,4.73,4.08,8,4.08s6.17-1.61,8-4.08h0c2.17-4.16,6.48-7,11.44-7s9.27,2.84,11.45,7h-.05c1.82,2.47,4.7,4.08,7.96,4.08s6.14-1.61,7.96-4.08h0c2.16-4.16,6.44-7,11.38-7s9.22,2.84,11.38,7h0c1.83,2.47,4.73,4.08,8,4.08s6.17-1.61,8-4.08h0c2.17-4.16,6.48-7,11.45-7s9.27,2.84,11.45,7h-.05c1.82,2.47,4.7,4.08,7.96,4.08s6.14-1.61,7.96-4.08h0c2.16-4.16,6.44-7,11.38-7s9.22,2.84,11.38,7h-3.39c-1.83-2.48-4.72-4.08-8-4.08ZM147.38,22.92c-3.27,0-6.17,1.61-8,4.08h-.02c-2.15,4.16-6.41,7-11.33,7s-9.18-2.84-11.33-7h.02c-1.84-2.47-4.75-4.08-8.04-4.08s-6.2,1.61-8.04,4.08h-.02c-2.16,4.16-6.45,7-11.39,7s-9.23-2.84-11.39-7h0c-1.83-2.47-4.72-4.08-8-4.08s-6.17,1.61-8,4.08h-.02c-2.15,4.16-6.41,7-11.33,7s-9.18-2.84-11.33-7h.02c-1.84-2.47-4.75-4.08-8.04-4.08s-6.2,1.61-8.04,4.08h-.02c-2.16,4.16-6.45,7-11.39,7S2.44,31.16.28,27h3.39c1.83,2.48,4.73,4.08,8,4.08s6.17-1.61,8-4.08h0c2.17-4.16,6.48-7,11.44-7s9.27,2.84,11.45,7h-.05c1.82,2.48,4.7,4.08,7.96,4.08s6.14-1.61,7.96-4.08h0c2.16-4.16,6.44-7,11.38-7s9.22,2.84,11.38,7h0c1.83,2.48,4.73,4.08,8,4.08s6.17-1.61,8-4.08h0c2.17-4.16,6.48-7,11.45-7s9.27,2.84,11.45,7h-.05c1.82,2.48,4.7,4.08,7.96,4.08s6.14-1.61,7.96-4.08h0c2.16-4.16,6.44-7,11.38-7s9.22,2.84,11.38,7h-3.39c-1.83-2.47-4.72-4.08-8-4.08ZM147.38,2.92c-3.27,0-6.17,1.61-8,4.08h-.02c-2.15,4.16-6.41,7-11.33,7s-9.18-2.84-11.33-7h.02c-1.84-2.47-4.75-4.08-8.04-4.08s-6.2,1.61-8.04,4.08h-.02c-2.16,4.16-6.45,7-11.39,7s-9.23-2.84-11.39-7h0c-1.83-2.47-4.72-4.08-8-4.08s-6.17,1.61-8,4.08h-.02c-2.15,4.16-6.41,7-11.33,7s-9.18-2.84-11.33-7h.02c-1.84-2.47-4.75-4.08-8.04-4.08s-6.2,1.61-8.04,4.08h-.02c-2.16,4.16-6.45,7-11.39,7S2.44,11.16.28,7h3.39c1.83,2.48,4.73,4.08,8,4.08s6.17-1.61,8-4.08h0C21.85,2.84,26.16,0,31.12,0s9.27,2.84,11.45,7h-.05c1.82,2.48,4.7,4.08,7.96,4.08s6.14-1.61,7.96-4.08h0C60.6,2.84,64.89,0,69.82,0s9.22,2.84,11.38,7h0c1.83,2.48,4.73,4.08,8,4.08s6.17-1.61,8-4.08h0C99.4,2.84,103.71,0,108.67,0s9.27,2.84,11.45,7h-.05c1.82,2.48,4.7,4.08,7.96,4.08s6.14-1.61,7.96-4.08h0C138.15,2.84,142.44,0,147.38,0s9.22,2.84,11.38,7h-3.39c-1.83-2.47-4.72-4.08-8-4.08ZM11.67,71.08c3.28,0,6.17-1.61,8-4.08h0c2.17-4.16,6.48-7,11.44-7s9.27,2.84,11.45,7h-.05c1.82,2.48,4.7,4.08,7.96,4.08s6.14-1.61,7.96-4.08h0c2.16-4.16,6.44-7,11.38-7s9.22,2.84,11.38,7h0c1.83,2.48,4.73,4.08,8,4.08s6.17-1.61,8-4.08h0c2.17-4.16,6.48-7,11.45-7s9.27,2.84,11.45,7h-.05c1.82,2.48,4.7,4.08,7.96,4.08s6.14-1.61,7.96-4.08h0c2.16-4.16,6.44-7,11.38-7s9.22,2.84,11.38,7h-3.39c-1.83-2.47-4.72-4.08-8-4.08s-6.17,1.61-8,4.08h-.02c-2.15,4.16-6.41,7-11.33,7s-9.18-2.84-11.33-7h.02c-1.84-2.47-4.75-4.08-8.04-4.08s-6.2,1.61-8.04,4.08h-.02c-2.16,4.16-6.45,7-11.39,7s-9.23-2.84-11.39-7h0c-1.83-2.47-4.72-4.08-8-4.08s-6.17,1.61-8,4.08h-.02c-2.15,4.16-6.41,7-11.33,7s-9.18-2.84-11.33-7h.02c-1.84-2.47-4.75-4.08-8.04-4.08s-6.2,1.61-8.04,4.08h-.02c-2.16,4.16-6.45,7-11.39,7s-9.23-2.84-11.39-7h3.39c1.83,2.48,4.73,4.08,8,4.08Z"/>
</svg>
